src/16/panel/microphone-sensitivity-medium.svg

<svg height="16.001" width="16" xmlns="http://www.w3.org/2000/svg"><defs><style id="current-color-scheme" type="text/css">.ColorScheme-Text{color:#dfdfdf;}.ColorScheme-Highlight{color:#5294e2;}</style></defs><path d="M8 0C6.34 0 5 1.34 5 3v5c0 1.663 1.339 3 3 3 1.663 0 3-1.337 3-3V3c0-1.661-1.337-3-3-3zm0 2c.555 0 1 .447 1 1v5c0 .555-.445 1-1 1-.553 0-1-.445-1-1V3c0-.553.447-1 1-1zM2 7v1a5.992 5.992 0 0 0 5 5.907v2.094h2v-2.094a5.992 5.992 0 0 0 5-5.906V7h-2v1c0 2.233-1.766 4-4 4a3.97 3.97 0 0 1-4-4V7z" style="marker:none" color="#bebebe" overflow="visible" fill="#dfdfdf" stroke-width="2"/></svg>

<svg xmlns="http://www.w3.org/2000/svg" width="16" height="16" version="1.1">
 <defs>
  <style id="current-color-scheme" type="text/css">
   .ColorScheme-Text { color:#dfdfdf; } .ColorScheme-Highlight { color:#4285f4; }
  </style>
 </defs>
 <path style="fill:currentColor" class="ColorScheme-Text" d="M 8,0 C 6.34,0 5,1.34 5,3 V 8 C 5,9.66 6.34,11 8,11 9.66,11 11,9.66 11,8 V 3 C 11,1.34 9.66,0 8,0 Z M 8,2 C 8.55,2 9,2.45 9,3 V 8 C 9,8.55 8.55,9 8,9 7.45,9 7,8.55 7,8 V 3 C 7,2.45 7.45,2 8,2 Z M 2,7 V 8 C 2,10.97 4.16,13.43 7,13.91 V 16 H 9 V 13.91 C 11.84,13.43 14,10.97 14,8 V 7 H 12 V 8 C 12,10.23 10.23,12 8,12 5.77,12 4,10.23 4,8 V 7 Z"/>
</svg>
